src/icons/logoipsum-five.svg

<svg id="logo-84" width="40" height="28" viewBox="0 0 40 28" fill="none" xmlns="http://www.w3.org/2000/svg"><path class="ccustom" fill-rule="evenodd" clip-rule="evenodd" d="M9.98578 4.11462L0 14C1.99734 15.9773 4.27899 17.6437 6.76664 18.9474C7.45424 20.753 8.53203 22.4463 10 23.8995C15.5229 29.3668 24.4772 29.3668 30 23.8995C31.468 22.4463 32.5458 20.753 33.2334 18.9473C35.721 17.6437 38.0027 15.9773 40 14L30.0223 4.12266C30.0149 4.11527 30.0075 4.10788 30 4.1005C24.4772 -1.36683 15.5229 -1.36683 10 4.1005C9.99527 4.10521 9.99052 4.10991 9.98578 4.11462ZM29.0445 20.7309C26.1345 21.7031 23.0797 22.201 20 22.201C16.9203 22.201 13.8656 21.7031 10.9556 20.7309C11.2709 21.145 11.619 21.5424 12 21.9196C16.4183 26.2935 23.5817 26.2935 28 21.9196C28.381 21.5424 28.7292 21.145 29.0445 20.7309ZM12.2051 5.8824C12.9554 6.37311 13.7532 6.79302 14.588 7.13536C16.3038 7.83892 18.1428 8.20104 20 8.20104C21.8572 8.20104 23.6962 7.83892 25.412 7.13536C26.2468 6.79302 27.0446 6.3731 27.795 5.88238C23.4318 1.77253 16.5682 1.77254 12.2051 5.8824Z" fill="#3B4158"></path></svg>

<svg xmlns="http://www.w3.org/2000/svg" width="40" height="28" fill="none"><path fill="#3B4158" fill-rule="evenodd" d="M9.986 4.115 0 14a28.268 28.268 0 0 0 6.767 4.947A13.935 13.935 0 0 0 10 23.9c5.523 5.467 14.477 5.467 20 0a13.934 13.934 0 0 0 3.233-4.953A28.265 28.265 0 0 0 40 14l-9.978-9.877A4.247 4.247 0 0 0 30 4.1c-5.523-5.468-14.477-5.468-20 0l-.014.014M29.045 20.73a28.547 28.547 0 0 1-18.09 0c.316.414.664.811 1.045 1.189 4.418 4.374 11.582 4.374 16 0 .381-.378.73-.775 1.044-1.19M12.205 5.882a14.267 14.267 0 0 0 15.59 0c-4.363-4.11-11.227-4.11-15.59 0Z" class="ccustom" clip-rule="evenodd"/></svg>
